X: 17874
T: Horse With A Heart
R: jig
M: 6/8
K: Amixolydian
e2A ABc|efa f2 e|fBB Bde|f2g fea|
eAA ABc|efa f2 e|def aed|1 cdB A2f:|2 cdB Acd||
eaa faa|eaa efg|fBB Bde|f2a fea|
eaa faa|eaa efe|def aed|1 cdB Acd:|2 cdB A2f||

